pro/src/pages/AdageIframe/app/components/AdageDiscovery/DomainsCard/assets/triangles.svg

<svg width="186" height="108" viewBox="0 0 186 108" fill="none" xmlns="http://www.w3.org/2000/svg">
<g id="triangles" clip-path="url(#clip0_2328_483)">
<path id="Polygon 1" opacity="0.2" d="M142.996 -20.73C142.929 -22.2732 144.562 -23.3068 145.928 -22.5856L208.878 10.6549C210.237 11.3726 210.312 13.2915 209.014 14.1134L149.16 51.9929C147.861 52.8149 146.159 51.9255 146.092 50.3899L142.996 -20.73Z" fill="url(#paint0_linear_2328_483)"/>
<path id="Polygon 2" opacity="0.2" d="M114.465 29.8005C112.941 29.5448 112.27 27.7321 113.26 26.5463L123.518 14.2584C124.503 13.0785 126.396 13.4045 126.929 14.846L132.457 29.7832C132.991 31.2247 131.767 32.7042 130.251 32.4498L114.465 29.8005Z" fill="url(#paint1_linear_2328_483)"/>
<path id="Polygon 3" opacity="0.2" d="M180.455 37.8616C181.133 36.4737 183.061 36.3459 183.917 37.6321L196.794 56.9932C197.645 58.273 196.794 59.9947 195.261 60.0964L172.175 61.6266C170.641 61.7282 169.571 60.1339 170.246 58.7529L180.455 37.8616Z" fill="url(#paint2_linear_2328_483)"/>
</g>
<defs>
<linearGradient id="paint0_linear_2328_483" x1="131.438" y1="38.5477" x2="177.566" y2="25.7322" gradientUnits="userSpaceOnUse">
<stop stop-color="white"/>
<stop offset="1" stop-color="white" stop-opacity="0"/>
</linearGradient>
<linearGradient id="paint1_linear_2328_483" x1="111.025" y1="29.2233" x2="129.693" y2="22.3146" gradientUnits="userSpaceOnUse">
<stop stop-color="white"/>
<stop offset="1" stop-color="white" stop-opacity="0"/>
</linearGradient>
<linearGradient id="paint2_linear_2328_483" x1="181.986" y1="34.7285" x2="190.08" y2="71.8598" gradientUnits="userSpaceOnUse">
<stop stop-color="white"/>
<stop offset="1" stop-color="white" stop-opacity="0"/>
</linearGradient>
<clipPath id="clip0_2328_483">
<rect width="186" height="108" fill="white"/>
</clipPath>
</defs>
</svg>

<svg xmlns="http://www.w3.org/2000/svg" width="186" height="108" fill="none"><g id="triangles" clip-path="url(#clip0_2328_483)"><path id="Polygon 1" fill="url(#paint0_linear_2328_483)" d="M142.996-20.73c-.067-1.543 1.566-2.577 2.932-1.856l62.95 33.24c1.359.719 1.434 2.637.136 3.46L149.16 51.992c-1.299.822-3.001-.068-3.068-1.603z" opacity=".2"/><path id="Polygon 2" fill="url(#paint1_linear_2328_483)" d="M114.465 29.8c-1.524-.255-2.195-2.068-1.205-3.254l10.258-12.288c.985-1.18 2.878-.853 3.411.588l5.528 14.937c.534 1.442-.69 2.921-2.206 2.667z" opacity=".2"/><path id="Polygon 3" fill="url(#paint2_linear_2328_483)" d="M180.455 37.862c.678-1.388 2.606-1.516 3.462-.23l12.877 19.361c.851 1.28 0 3.002-1.533 3.103l-23.086 1.53c-1.534.102-2.604-1.492-1.929-2.873z" opacity=".2"/></g><defs><linearGradient id="paint0_linear_2328_483" x1="131.438" x2="177.566" y1="38.548" y2="25.732" gradientUnits="userSpaceOnUse"><stop stop-color="#fff"/><stop offset="1" stop-color="#fff" stop-opacity="0"/></linearGradient><linearGradient id="paint1_linear_2328_483" x1="111.025" x2="129.693" y1="29.223" y2="22.315" gradientUnits="userSpaceOnUse"><stop stop-color="#fff"/><stop offset="1" stop-color="#fff" stop-opacity="0"/></linearGradient><linearGradient id="paint2_linear_2328_483" x1="181.986" x2="190.08" y1="34.728" y2="71.86" gradientUnits="userSpaceOnUse"><stop stop-color="#fff"/><stop offset="1" stop-color="#fff" stop-opacity="0"/></linearGradient><clipPath id="clip0_2328_483"><path fill="#fff" d="M0 0h186v108H0z"/></clipPath></defs></svg>
